assets/cpu.svg

<?xml version="1.0" encoding="UTF-8"?>
<svg width="100px" height="100px" viewBox="0 0 100 100" version="1.1" xmlns="http://www.w3.org/2000/svg" xmlns:xlink="http://www.w3.org/1999/xlink">
    <!-- Generator: Sketch 42 (36781) - http://www.bohemiancoding.com/sketch -->
    <title>chip (1)</title>
    <desc>Created with Sketch.</desc>
    <defs></defs>
    <g id="Page-1" stroke="none" stroke-width="1" fill="none" fill-rule="evenodd">
        <g id="Artboard-Copy-5" transform="translate(-197.000000, -132.000000)" fill-rule="nonzero" fill="#33373A">
            <g id="server" transform="translate(190.000000, 35.000000)">
                <g id="Group-8" transform="translate(0.000000, 45.000000)">
                    <g id="Group-2" transform="translate(7.000000, 35.000000)">
                        <g id="Path-2" transform="translate(0.000000, 17.000000)">
                            <g id="chip-(1)">
                                <g id="Capa_1">
                                    <g id="Group">
                                        <circle id="Oval" cx="8.33333333" cy="8.33333333" r="1.66666667"></circle>
                                        <ellipse id="Oval" cx="91.6666667" cy="8.33333333" rx="1.66666667" ry="1.66666667"></ellipse>
                                        <ellipse id="Oval" cx="8.33333333" cy="91.6666667" rx="1.66666667" ry="1.66666667"></ellipse>
                                        <ellipse id="Oval" cx="18.3333333" cy="93.3333333" rx="1.66666667" ry="1.66666667"></ellipse>
                                        <ellipse id="Oval" cx="25" cy="93.3333333" rx="1.66666667" ry="1.66666667"></ellipse>
                                        <ellipse id="Oval" cx="31.6666667" cy="93.3333333" rx="1.66666667" ry="1.66666667"></ellipse>
                                        <ellipse id="Oval" cx="38.3333333" cy="93.3333333" rx="1.66666667" ry="1.66666667"></ellipse>
                                        <ellipse id="Oval" cx="63.3333333" cy="65" rx="1.66666667" ry="1.66666667"></ellipse>
                                        <ellipse id="Oval" cx="56.6666667" cy="65" rx="1.66666667" ry="1.66666667"></ellipse>
                                        <circle id="Oval" cx="60" cy="60" r="1.66666667"></circle>
                                        <circle id="Oval" cx="50" cy="65" r="1.66666667"></circle>
                                        <ellipse id="Oval" cx="43.3333333" cy="65" rx="1.66666667" ry="1.66666667"></ellipse>
                                        <ellipse id="Oval" cx="53.3333333" cy="60" rx="1.66666667" ry="1.66666667"></ellipse>
                                        <ellipse id="Oval" cx="46.6666667" cy="60" rx="1.66666667" ry="1.66666667"></ellipse>
                                        <ellipse id="Oval" cx="36.6666667" cy="65" rx="1.66666667" ry="1.66666667"></ellipse>
                                        <ellipse id="Oval" cx="40" cy="60" rx="1.66666667" ry="1.66666667"></ellipse>
                                        <ellipse id="Oval" cx="63.3333333" cy="55" rx="1.66666667" ry="1.66666667"></ellipse>
                                        <circle id="Oval" cx="56.6666667" cy="55" r="1.66666667"></circle>
                                        <ellipse id="Oval" cx="60" cy="50" rx="1.66666667" ry="1.66666667"></ellipse>
                                        <ellipse id="Oval" cx="50" cy="55" rx="1.66666667" ry="1.66666667"></ellipse>
                                        <circle id="Oval" cx="43.3333333" cy="55" r="1.66666667"></circle>
                                        <ellipse id="Oval" cx="53.3333333" cy="50" rx="1.66666667" ry="1.66666667"></ellipse>
                                        <ellipse id="Oval" cx="46.6666667" cy="50" rx="1.66666667" ry="1.66666667"></ellipse>
                                        <ellipse id="Oval" cx="36.6666667" cy="55" rx="1.66666667" ry="1.66666667"></ellipse>
                                        <circle id="Oval" cx="40" cy="50" r="1.66666667"></circle>
                                        <ellipse id="Oval" cx="63.3333333" cy="45" rx="1.66666667" ry="1.66666667"></ellipse>
                                        <ellipse id="Oval" cx="56.6666667" cy="45" rx="1.66666667" ry="1.66666667"></ellipse>
                                        <ellipse id="Oval" cx="60" cy="40" rx="1.66666667" ry="1.66666667"></ellipse>
                                        <ellipse id="Oval" cx="50" cy="45" rx="1.66666667" ry="1.66666667"></ellipse>
                                        <ellipse id="Oval" cx="43.3333333" cy="45" rx="1.66666667" ry="1.66666667"></ellipse>
                                        <ellipse id="Oval" cx="53.3333333" cy="40" rx="1.66666667" ry="1.66666667"></ellipse>
                                        <ellipse id="Oval" cx="46.6666667" cy="40" rx="1.66666667" ry="1.66666667"></ellipse>
                                        <ellipse id="Oval" cx="36.6666667" cy="45" rx="1.66666667" ry="1.66666667"></ellipse>
                                        <circle id="Oval" cx="40" cy="40" r="1.66666667"></circle>
                                        <ellipse id="Oval" cx="63.3333333" cy="35" rx="1.66666667" ry="1.66666667"></ellipse>
                                        <ellipse id="Oval" cx="56.6666667" cy="35" rx="1.66666667" ry="1.66666667"></ellipse>
                                        <circle id="Oval" cx="50" cy="35" r="1.66666667"></circle>
                                        <ellipse id="Oval" cx="43.3333333" cy="35" rx="1.66666667" ry="1.66666667"></ellipse>
                                        <ellipse id="Oval" cx="36.6666667" cy="35" rx="1.66666667" ry="1.66666667"></ellipse>
                                        <ellipse id="Oval" cx="91.6666667" cy="91.6666667" rx="1.66666667" ry="1.66666667"></ellipse>
                                        <path d="M85,41.6666667 C85.92,41.6666667 86.6666667,40.9216667 86.6666667,40 C86.6666667,39.0783333 85.92,38.3333333 85,38.3333333 L81.6666667,38.3333333 L81.6666667,35 L75,35 L75,32.2616667 C75,28.2583333 71.7416667,25 67.7383333,25 L65,25 L65,18.3333333 L61.6666667,18.3333333 L61.6666667,15 C61.6666667,14.0783333 60.92,13.3333333 60,13.3333333 C59.08,13.3333333 58.3333333,14.0783333 58.3333333,15 L58.3333333,18.3333333 L55,18.3333333 L55,15 C55,14.0783333 54.2533333,13.3333333 53.3333333,13.3333333 C52.4133333,13.3333333 51.6666667,14.0783333 51.6666667,15 L51.6666667,18.3333333 L48.3333333,18.3333333 L48.3333333,15 C48.3333333,14.0783333 47.5866667,13.3333333 46.6666667,13.3333333 C45.7466667,13.3333333 45,14.0783333 45,15 L45,18.3333333 L41.6666667,18.3333333 L41.6666667,15 C41.6666667,14.0783333 40.92,13.3333333 40,13.3333333 C39.08,13.3333333 38.3333333,14.0783333 38.3333333,15 L38.3333333,18.3333333 L35,18.3333333 L35,25 L32.2616667,25 C28.2583333,25 25,28.2583333 25,32.2616667 L25,35 L18.3333333,35 L18.3333333,38.3333333 L15,38.3333333 C14.08,38.3333333 13.3333333,39.0783333 13.3333333,40 C13.3333333,40.9216667 14.08,41.6666667 15,41.6666667 L18.3333333,41.6666667 L18.3333333,45 L15,45 C14.08,45 13.3333333,45.745 13.3333333,46.6666667 C13.3333333,47.5883333 14.08,48.3333333 15,48.3333333 L18.3333333,48.3333333 L18.3333333,51.6666667 L15,51.6666667 C14.08,51.6666667 13.3333333,52.4116667 13.3333333,53.3333333 C13.3333333,54.255 14.08,55 15,55 L18.3333333,55 L18.3333333,58.3333333 L15,58.3333333 C14.08,58.3333333 13.3333333,59.0783333 13.3333333,60 C13.3333333,60.9216667 14.08,61.6666667 15,61.6666667 L18.3333333,61.6666667 L18.3333333,65 L25,65 L25,67.7383333 C25,71.7416667 28.2583333,75 32.2616667,75 L35,75 L35,81.6666667 L38.3333333,81.6666667 L38.3333333,85 C38.3333333,85.9216667 39.08,86.6666667 40,86.6666667 C40.92,86.6666667 41.6666667,85.9216667 41.6666667,85 L41.6666667,81.6666667 L45,81.6666667 L45,85 C45,85.9216667 45.7466667,86.6666667 46.6666667,86.6666667 C47.5866667,86.6666667 48.3333333,85.9216667 48.3333333,85 L48.3333333,81.6666667 L51.6666667,81.6666667 L51.6666667,85 C51.6666667,85.9216667 52.4133333,86.6666667 53.3333333,86.6666667 C54.2533333,86.6666667 55,85.9216667 55,85 L55,81.6666667 L58.3333333,81.6666667 L58.3333333,85 C58.3333333,85.9216667 59.08,86.6666667 60,86.6666667 C60.92,86.6666667 61.6666667,85.9216667 61.6666667,85 L61.6666667,81.6666667 L65,81.6666667 L65,75 L67.7383333,75 C71.7416667,75 75,71.7416667 75,67.7383333 L75,65 L81.6666667,65 L81.6666667,61.6666667 L85,61.6666667 C85.92,61.6666667 86.6666667,60.9216667 86.6666667,60 C86.6666667,59.0783333 85.92,58.3333333 85,58.3333333 L81.6666667,58.3333333 L81.6666667,55 L85,55 C85.92,55 86.6666667,54.255 86.6666667,53.3333333 C86.6666667,52.4116667 85.92,51.6666667 85,51.6666667 L81.6666667,51.6666667 L81.6666667,48.3333333 L85,48.3333333 C85.92,48.3333333 86.6666667,47.5883333 86.6666667,46.6666667 C86.6666667,45.745 85.92,45 85,45 L81.6666667,45 L81.6666667,41.6666667 L85,41.6666667 Z M25,61.6666667 L21.6666667,61.6666667 L21.6666667,38.3333333 L25,38.3333333 L25,61.6666667 Z M38.3333333,21.6666667 L61.6666667,21.6666667 L61.6666667,25 L38.3333333,25 L38.3333333,21.6666667 Z M61.6666667,78.3333333 L38.3333333,78.3333333 L38.3333333,75 L61.6666667,75 L61.6666667,78.3333333 Z M71.6666667,35 L71.6666667,65 L71.6666667,67.7383333 C71.6666667,69.905 69.9033333,71.6666667 67.7383333,71.6666667 L65,71.6666667 L35,71.6666667 L32.2616667,71.6666667 C30.0966667,71.6666667 28.3333333,69.9033333 28.3333333,67.7383333 L28.3333333,65 L28.3333333,35 L28.3333333,32.2616667 C28.3333333,30.095 30.0966667,28.3333333 32.2616667,28.3333333 L35,28.3333333 L65,28.3333333 L67.7383333,28.3333333 C69.905,28.3333333 71.6666667,30.0966667 71.6666667,32.2616667 L71.6666667,35 Z M78.3333333,61.6666667 L75,61.6666667 L75,38.3333333 L78.3333333,38.3333333 L78.3333333,61.6666667 Z" id="Shape"></path>
                                        <ellipse id="Oval" cx="6.66666667" cy="61.6666667" rx="1.66666667" ry="1.66666667"></ellipse>
                                        <ellipse id="Oval" cx="6.66666667" cy="68.3333333" rx="1.66666667" ry="1.66666667"></ellipse>
                                        <ellipse id="Oval" cx="6.66666667" cy="75" rx="1.66666667" ry="1.66666667"></ellipse>
                                        <ellipse id="Oval" cx="6.66666667" cy="81.6666667" rx="1.66666667" ry="1.66666667"></ellipse>
                                        <path d="M90.835,0 L76.6666667,0 L76.6666667,1.66666667 C76.6666667,4.42333333 74.4233333,6.66666667 71.6666667,6.66666667 C68.91,6.66666667 66.6666667,4.42333333 66.6666667,1.66666667 L66.6666667,0 L9.165,0 C4.11166667,0 0,4.11166667 0,9.165 L0,20 L6.66666667,20 L6.66666667,23.3333333 L0,23.3333333 L0,90.835 C0,95.8883333 4.11166667,100 9.165,100 L66.6666667,100 L66.6666667,98.3333333 C66.6666667,95.5766667 68.91,93.3333333 71.6666667,93.3333333 C74.4233333,93.3333333 76.6666667,95.5766667 76.6666667,98.3333333 L76.6666667,100 L90.835,100 C95.8883333,100 100,95.8883333 100,90.835 L100,9.165 C100,4.11166667 95.8883333,0 90.835,0 Z M96.6666667,28.3333333 L93.3333333,28.3333333 C92.4133333,28.3333333 91.6666667,29.0783333 91.6666667,30 C91.6666667,30.9216667 92.4133333,31.6666667 93.3333333,31.6666667 L96.6666667,31.6666667 L96.6666667,33.3333333 L93.3333333,33.3333333 C92.4133333,33.3333333 91.6666667,34.0783333 91.6666667,35 C91.6666667,35.9216667 92.4133333,36.6666667 93.3333333,36.6666667 L96.6666667,36.6666667 L96.6666667,38.3333333 L93.3333333,38.3333333 C92.4133333,38.3333333 91.6666667,39.0783333 91.6666667,40 C91.6666667,40.9216667 92.4133333,41.6666667 93.3333333,41.6666667 L96.6666667,41.6666667 L96.6666667,43.3333333 L93.3333333,43.3333333 C92.4133333,43.3333333 91.6666667,44.0783333 91.6666667,45 C91.6666667,45.9216667 92.4133333,46.6666667 93.3333333,46.6666667 L96.6666667,46.6666667 L96.6666667,48.3333333 L93.3333333,48.3333333 C92.4133333,48.3333333 91.6666667,49.0783333 91.6666667,50 C91.6666667,50.9216667 92.4133333,51.6666667 93.3333333,51.6666667 L96.6666667,51.6666667 L96.6666667,53.3333333 L93.3333333,53.3333333 C92.4133333,53.3333333 91.6666667,54.0783333 91.6666667,55 C91.6666667,55.9216667 92.4133333,56.6666667 93.3333333,56.6666667 L96.6666667,56.6666667 L96.6666667,58.3333333 L93.3333333,58.3333333 C92.4133333,58.3333333 91.6666667,59.0783333 91.6666667,60 C91.6666667,60.9216667 92.4133333,61.6666667 93.3333333,61.6666667 L96.6666667,61.6666667 L96.6666667,63.3333333 L93.3333333,63.3333333 C92.4133333,63.3333333 91.6666667,64.0783333 91.6666667,65 C91.6666667,65.9216667 92.4133333,66.6666667 93.3333333,66.6666667 L96.6666667,66.6666667 L96.6666667,68.3333333 L93.3333333,68.3333333 C92.4133333,68.3333333 91.6666667,69.0783333 91.6666667,70 C91.6666667,70.9216667 92.4133333,71.6666667 93.3333333,71.6666667 L96.6666667,71.6666667 L96.6666667,90.835 C96.6666667,94.0516667 94.0516667,96.6666667 90.835,96.6666667 L79.8316667,96.6666667 C79.0583333,92.8683333 75.69,90 71.6666667,90 C67.6433333,90 64.275,92.8683333 63.5016667,96.6666667 L9.165,96.6666667 C5.94833333,96.6666667 3.33333333,94.0516667 3.33333333,90.835 L3.33333333,26.6666667 L10,26.6666667 L10,16.6666667 L3.33333333,16.6666667 L3.33333333,9.165 C3.33333333,5.94833333 5.94833333,3.33333333 9.165,3.33333333 L63.5016667,3.33333333 C64.275,7.13166667 67.6416667,10 71.6666667,10 C75.6916667,10 79.0583333,7.13166667 79.8316667,3.33333333 L90.835,3.33333333 C94.0516667,3.33333333 96.6666667,5.94833333 96.6666667,9.165 L96.6666667,28.3333333 Z" id="Shape"></path>
                                    </g>
                                </g>
                            </g>
                        </g>
                    </g>
                </g>
            </g>
        </g>
    </g>
</svg>

<svg id="Layer_1" data-name="Layer 1" xmlns="http://www.w3.org/2000/svg" viewBox="0 0 100 100"><defs><style>.cls-1{fill:#33373a;}</style></defs><title>cpu</title><g id="Group"><circle id="Oval" class="cls-1" cx="8.33" cy="8.33" r="1.67"/><circle id="Oval-2" data-name="Oval" class="cls-1" cx="91.67" cy="8.33" r="1.67"/><circle id="Oval-3" data-name="Oval" class="cls-1" cx="8.33" cy="91.67" r="1.67"/><circle id="Oval-4" data-name="Oval" class="cls-1" cx="18.33" cy="93.33" r="1.67"/><circle id="Oval-5" data-name="Oval" class="cls-1" cx="25" cy="93.33" r="1.67"/><circle id="Oval-6" data-name="Oval" class="cls-1" cx="31.67" cy="93.33" r="1.67"/><circle id="Oval-7" data-name="Oval" class="cls-1" cx="38.33" cy="93.33" r="1.67"/><circle id="Oval-8" data-name="Oval" class="cls-1" cx="63.33" cy="65" r="1.67"/><circle id="Oval-9" data-name="Oval" class="cls-1" cx="56.67" cy="65" r="1.67"/><circle id="Oval-10" data-name="Oval" class="cls-1" cx="60" cy="60" r="1.67"/><circle id="Oval-11" data-name="Oval" class="cls-1" cx="50" cy="65" r="1.67"/><circle id="Oval-12" data-name="Oval" class="cls-1" cx="43.33" cy="65" r="1.67"/><circle id="Oval-13" data-name="Oval" class="cls-1" cx="53.33" cy="60" r="1.67"/><circle id="Oval-14" data-name="Oval" class="cls-1" cx="46.67" cy="60" r="1.67"/><circle id="Oval-15" data-name="Oval" class="cls-1" cx="36.67" cy="65" r="1.67"/><circle id="Oval-16" data-name="Oval" class="cls-1" cx="40" cy="60" r="1.67"/><circle id="Oval-17" data-name="Oval" class="cls-1" cx="63.33" cy="55" r="1.67"/><circle id="Oval-18" data-name="Oval" class="cls-1" cx="56.67" cy="55" r="1.67"/><circle id="Oval-19" data-name="Oval" class="cls-1" cx="60" cy="50" r="1.67"/><circle id="Oval-20" data-name="Oval" class="cls-1" cx="50" cy="55" r="1.67"/><circle id="Oval-21" data-name="Oval" class="cls-1" cx="43.33" cy="55" r="1.67"/><circle id="Oval-22" data-name="Oval" class="cls-1" cx="53.33" cy="50" r="1.67"/><circle id="Oval-23" data-name="Oval" class="cls-1" cx="46.67" cy="50" r="1.67"/><circle id="Oval-24" data-name="Oval" class="cls-1" cx="36.67" cy="55" r="1.67"/><circle id="Oval-25" data-name="Oval" class="cls-1" cx="40" cy="50" r="1.67"/><circle id="Oval-26" data-name="Oval" class="cls-1" cx="63.33" cy="45" r="1.67"/><circle id="Oval-27" data-name="Oval" class="cls-1" cx="56.67" cy="45" r="1.67"/><circle id="Oval-28" data-name="Oval" class="cls-1" cx="60" cy="40" r="1.67"/><circle id="Oval-29" data-name="Oval" class="cls-1" cx="50" cy="45" r="1.67"/><circle id="Oval-30" data-name="Oval" class="cls-1" cx="43.33" cy="45" r="1.67"/><circle id="Oval-31" data-name="Oval" class="cls-1" cx="53.33" cy="40" r="1.67"/><circle id="Oval-32" data-name="Oval" class="cls-1" cx="46.67" cy="40" r="1.67"/><circle id="Oval-33" data-name="Oval" class="cls-1" cx="36.67" cy="45" r="1.67"/><circle id="Oval-34" data-name="Oval" class="cls-1" cx="40" cy="40" r="1.67"/><circle id="Oval-35" data-name="Oval" class="cls-1" cx="63.33" cy="35" r="1.67"/><circle id="Oval-36" data-name="Oval" class="cls-1" cx="56.67" cy="35" r="1.67"/><circle id="Oval-37" data-name="Oval" class="cls-1" cx="50" cy="35" r="1.67"/><circle id="Oval-38" data-name="Oval" class="cls-1" cx="43.33" cy="35" r="1.67"/><circle id="Oval-39" data-name="Oval" class="cls-1" cx="36.67" cy="35" r="1.67"/><circle id="Oval-40" data-name="Oval" class="cls-1" cx="91.67" cy="91.67" r="1.67"/><path id="Shape" class="cls-1" d="M85,41.67a1.67,1.67,0,0,0,0-3.33H81.67V35H75V32.26A7.27,7.27,0,0,0,67.74,25H65V18.33H61.67V15a1.67,1.67,0,0,0-3.33,0v3.33H55V15a1.67,1.67,0,1,0-3.33,0v3.33H48.33V15A1.67,1.67,0,1,0,45,15v3.33H41.67V15a1.67,1.67,0,0,0-3.33,0v3.33H35V25H32.26A7.27,7.27,0,0,0,25,32.26V35H18.33v3.33H15a1.67,1.67,0,0,0,0,3.33h3.33V45H15a1.67,1.67,0,1,0,0,3.33h3.33v3.33H15A1.67,1.67,0,1,0,15,55h3.33v3.33H15a1.67,1.67,0,0,0,0,3.33h3.33V65H25v2.74A7.27,7.27,0,0,0,32.26,75H35v6.67h3.33V85a1.67,1.67,0,0,0,3.33,0V81.67H45V85a1.67,1.67,0,0,0,3.33,0V81.67h3.33V85A1.67,1.67,0,0,0,55,85V81.67h3.33V85a1.67,1.67,0,0,0,3.33,0V81.67H65V75h2.74A7.27,7.27,0,0,0,75,67.74V65h6.67V61.67H85a1.67,1.67,0,0,0,0-3.33H81.67V55H85a1.67,1.67,0,0,0,0-3.33H81.67V48.33H85A1.67,1.67,0,0,0,85,45H81.67V41.67Zm-60,20H21.67V38.33H25Zm13.33-40H61.67V25H38.33ZM61.67,78.33H38.33V75H61.67ZM71.67,35V67.74a3.93,3.93,0,0,1-3.93,3.93H32.26a3.93,3.93,0,0,1-3.93-3.93V32.26a3.93,3.93,0,0,1,3.93-3.93H67.74a3.93,3.93,0,0,1,3.93,3.93Zm6.67,26.67H75V38.33h3.33Z"/><circle id="Oval-41" data-name="Oval" class="cls-1" cx="6.67" cy="61.67" r="1.67"/><circle id="Oval-42" data-name="Oval" class="cls-1" cx="6.67" cy="68.33" r="1.67"/><circle id="Oval-43" data-name="Oval" class="cls-1" cx="6.67" cy="75" r="1.67"/><circle id="Oval-44" data-name="Oval" class="cls-1" cx="6.67" cy="81.67" r="1.67"/><path id="Shape-2" data-name="Shape" class="cls-1" d="M90.83,0H76.67V1.67a5,5,0,0,1-10,0V0H9.16A9.18,9.18,0,0,0,0,9.16V20H6.67v3.33H0v67.5A9.18,9.18,0,0,0,9.16,100h57.5V98.33a5,5,0,0,1,10,0V100H90.83A9.18,9.18,0,0,0,100,90.83V9.16A9.18,9.18,0,0,0,90.83,0Zm5.83,28.33H93.33a1.67,1.67,0,1,0,0,3.33h3.33v1.67H93.33a1.67,1.67,0,1,0,0,3.33h3.33v1.67H93.33a1.67,1.67,0,1,0,0,3.33h3.33v1.67H93.33a1.67,1.67,0,1,0,0,3.33h3.33v1.67H93.33a1.67,1.67,0,1,0,0,3.33h3.33v1.67H93.33a1.67,1.67,0,1,0,0,3.33h3.33v1.67H93.33a1.67,1.67,0,1,0,0,3.33h3.33v1.67H93.33a1.67,1.67,0,1,0,0,3.33h3.33v1.67H93.33a1.67,1.67,0,1,0,0,3.33h3.33V90.83a5.84,5.84,0,0,1-5.83,5.83h-11a8.33,8.33,0,0,0-16.33,0H9.16a5.84,5.84,0,0,1-5.83-5.83V26.67H10v-10H3.33V9.16A5.84,5.84,0,0,1,9.16,3.33H63.5a8.33,8.33,0,0,0,16.33,0h11a5.84,5.84,0,0,1,5.83,5.83Z"/></g></svg>
